svgs/thin/campground.svg

<svg xmlns="http://www.w3.org/2000/svg" viewBox="0 0 576 512"><!--! Font Awesome Pro 6.0.0-alpha3 by @fontawesome - https://fontawesome.com License - https://fontawesome.com/license (Commercial License) --><path d="M527.6 393.2l-229.2-278.3l83.81-101.8c2.812-3.406 2.328-8.437-1.094-11.25c-3.391-2.812-8.422-2.312-11.25 1.094L288 102.3L206.2 2.934C203.3-.5038 198.3-.9882 194.9 1.84C191.5 4.652 191 9.683 193.8 13.09l83.81 101.8l-229.2 278.3C37.83 406 32 422.3 32 438.1v65.03C32 508.4 35.58 512 40 512h496c4.422 0 8-3.578 8-7.1v-65.03C544 422.3 538.2 406 527.6 393.2zM179.4 496L288 341.9l108.6 154.1H179.4zM528 496h-111.8l-121.6-172.6c-3-4.25-10.09-4.25-13.09 0l-121.6 172.6H48v-57.03c0-12.97 4.531-25.61 12.77-35.61L288 127.4l227.2 275.9C523.5 413.4 528 426 528 438.1V496z"/></svg>

<svg xmlns="http://www.w3.org/2000/svg" viewBox="0 0 576 512"><!-- Font Awesome Pro 6.0.0-alpha2 by @fontawesome - https://fontawesome.com License - https://fontawesome.com/license (Commercial License) --><path d="M527.578 393.206L298.359 114.869L382.172 13.09C384.984 9.683 384.5 4.652 381.078 1.84C377.688 -0.973 372.656 -0.473 369.828 2.934L288 102.275L206.172 2.934C203.328 -0.504 198.281 -0.988 194.922 1.84C191.5 4.652 191.016 9.683 193.828 13.09L277.641 114.869L48.422 393.19C37.828 406.049 32 422.299 32 438.97V504C32 508.422 35.578 512 40 512H536C540.422 512 544 508.422 544 504V438.97C544 422.299 538.172 406.049 527.578 393.206ZM179.43 496L288 341.895L396.57 496H179.43ZM528 496H416.158L294.547 323.395C291.547 319.145 284.453 319.145 281.453 323.395L159.842 496H48V438.97C48 426.002 52.531 413.362 60.766 403.362L288 127.446L515.234 403.378C523.469 413.362 528 426.002 528 438.97V496Z"/></svg>
